assets/svg/networks/wallet_matic.svg

<svg width="36" height="36" viewBox="0 0 36 36" fill="none" xmlns="http://www.w3.org/2000/svg">
<g clip-path="url(#clip0_19002_45694)">
<rect width="36" height="36" rx="10" fill="#6F41D8"/>
<path d="M23.7284 14.2796C23.3133 14.0377 22.7744 14.0377 22.3177 14.2796L19.0788 16.1404L16.8794 17.3531L13.6406 19.2127C13.2254 19.4557 12.6866 19.4557 12.2298 19.2127L9.65582 17.757C9.24069 17.5151 8.95044 17.0707 8.95044 16.5847V13.7137C8.95044 13.2289 9.19907 12.7845 9.65582 12.5415L12.1871 11.1263C12.6033 10.8832 13.1433 10.8832 13.6001 11.1263L16.1313 12.5415C16.5476 12.7845 16.8378 13.2289 16.8378 13.7137V15.5745L19.0372 14.3201V12.4605C19.0396 12.219 18.975 11.9815 18.8504 11.7745C18.7259 11.5676 18.5464 11.3992 18.3318 11.2883L13.6406 8.61975C13.2254 8.37675 12.6866 8.37675 12.2298 8.61975L7.45532 11.2883C7.24077 11.3992 7.06124 11.5676 6.9367 11.7745C6.81217 11.9815 6.74751 12.219 6.74994 12.4605V17.838C6.74994 18.324 6.99857 18.7684 7.45532 19.0114L12.2298 21.6799C12.6449 21.9218 13.1849 21.9218 13.6406 21.6799L16.8794 19.8596L19.0788 18.6064L22.3177 16.7872C22.7328 16.5442 23.2717 16.5442 23.7284 16.7872L26.2608 18.2025C26.6771 18.4444 26.9662 18.8888 26.9662 19.3748V22.2458C26.9662 22.7306 26.7187 23.175 26.2608 23.418L23.7296 24.8738C23.3133 25.1168 22.7733 25.1168 22.3177 24.8738L19.7853 23.4585C19.3691 23.2155 19.0788 22.7711 19.0788 22.2862V20.4255L16.8794 21.6799V23.5395C16.8794 24.0244 17.1281 24.4699 17.5848 24.7118L22.3593 27.3802C22.7744 27.6232 23.3133 27.6232 23.7701 27.3802L28.5446 24.7118C28.9597 24.4699 29.2499 24.0255 29.2499 23.5395V18.162C29.2524 17.9205 29.1877 17.683 29.0632 17.476C28.9386 17.2691 28.7591 17.1007 28.5446 16.9897L23.7296 14.2796H23.7284Z" fill="white"/>
</g>
<defs>
<clipPath id="clip0_19002_45694">
<rect width="36" height="36" fill="white"/>
</clipPath>
</defs>
</svg>

<svg xmlns="http://www.w3.org/2000/svg" width="36" height="36" fill="none"><g clip-path="url(#a)"><rect width="36" height="36" fill="#6F41D8" rx="10"/><path fill="#fff" d="M23.728 14.28c-.415-.242-.954-.242-1.41 0l-3.24 1.86-2.199 1.213-3.238 1.86c-.416.243-.954.243-1.411 0l-2.574-1.456c-.415-.242-.706-.686-.706-1.172v-2.871c0-.485.25-.93.706-1.173l2.531-1.415c.416-.243.956-.243 1.413 0l2.531 1.415c.417.243.707.688.707 1.173v1.86l2.2-1.254v-1.86a1.3 1.3 0 0 0-.706-1.172L13.64 8.62c-.416-.243-.954-.243-1.411 0l-4.775 2.668a1.3 1.3 0 0 0-.705 1.172v5.378c0 .486.249.93.705 1.173l4.775 2.669c.415.242.955.242 1.41 0l3.24-1.82 2.199-1.254 3.239-1.819c.415-.243.954-.243 1.41 0l2.533 1.416c.416.241.705.686.705 1.172v2.87c0 .486-.247.93-.705 1.173l-2.531 1.456c-.417.243-.957.243-1.412 0l-2.533-1.415c-.416-.244-.706-.688-.706-1.173v-1.86l-2.2 1.254v1.86c0 .484.25.93.706 1.172l4.774 2.668c.415.243.954.243 1.411 0l4.775-2.668c.415-.242.705-.686.705-1.172v-5.378a1.3 1.3 0 0 0-.705-1.172l-4.815-2.71z"/></g><defs><clipPath id="a"><path fill="#fff" d="M0 0h36v36H0z"/></clipPath></defs></svg>
